X: 4
T: Mountcashel Brigade's March, The
Z: ceolachan
S: https://thesession.org/tunes/13128#setting22615
R: barndance
M: 4/4
L: 1/8
K: Gmaj
D2 |G2 B>A GA G/F/E | D>E D[Cc] [B,2B2] [D2d2] | G2 B>A GA Bc | A2 d>e dc c/B/A |
G2 B>A G2 G/F/E | D>E D[C/-G/][C/c/] [B,2B2] [D2d2] | ed/c/ B>A BA GF | G2 G>F G2 ||
A/B/c |d2 dc B>c BA | G2 G>A BG G/A/B | c>d cB A>B AG | FD D>E FD D/E/F |
G>A GD F/G/A FD | E>^D EF G2- Ge | d>e dB c/B/A FD | G2 G>F G2 |]
